assets/img/braze_icons/alarm-clock-off.svg

<svg fill="none" height="24" viewBox="0 0 24 24" width="24" xmlns="http://www.w3.org/2000/svg"><g fill="#801ed7"><path clip-rule="evenodd" d="m3.70711 2.29289c-.06335-.06334-.13307-.11641-.20711-.1592-.38243-.22105-.87992-.16798-1.20711.1592-.39052.39053-.39052 1.02369 0 1.41422l.2929.29289-1.2929 1.29289c-.390521.39053-.390521 1.02369 0 1.41422.39053.39052 1.02369.39052 1.41422 0l1.29289-1.2929 1.43236 1.43236c-1.56024 1.66513-2.43236 3.86433-2.43236 6.15353 0 2.0512.70021 4.0302 1.96826 5.6174l-1.67537 1.6754c-.39052.3905-.39052 1.0237 0 1.4142.39053.3905 1.02369.3905 1.41422 0l1.67535-1.6754c1.58725 1.2682 3.5663 1.9684 5.61754 1.9684 2.2892 0 4.4884-.8721 6.1535-2.4323l2.1394 2.1393c.3905.3905 1.0237.3905 1.4142 0s.3905-1.0237 0-1.4142z" fill-rule="evenodd"/><path d="m20.4203 16.1777c.3797-1.0061.5797-2.0816.5797-3.1777 0-2.3869-.9482-4.67613-2.636-6.36396-1.6879-1.68783-3.9771-2.63604-6.364-2.63604-1.0961 0-2.1716.19995-3.1777.57965z"/><path d="m19.7071 2.29289c-.3905-.39052-1.0237-.39052-1.4142 0-.3905.39053-.3905 1.02369 0 1.41422l3 3c.3905.39052 1.0237.39052 1.4142 0 .3905-.39053.3905-1.02369 0-1.41422z"/></g></svg>

<svg width="24" height="24" viewBox="0 0 24 24" fill="none" xmlns="http://www.w3.org/2000/svg">
<path fill-rule="evenodd" clip-rule="evenodd" d="M3.70711 2.29289C3.64376 2.22955 3.57404 2.17648 3.5 2.13369C3.11757 1.91264 2.62008 1.96571 2.29289 2.29289C1.90237 2.68342 1.90237 3.31658 2.29289 3.70711L2.58579 4L1.29289 5.29289C0.902369 5.68342 0.902369 6.31658 1.29289 6.70711C1.68342 7.09763 2.31658 7.09763 2.70711 6.70711L4 5.41421L5.43236 6.84657C3.87212 8.5117 3 10.7109 3 13.0001C3 15.0513 3.70021 17.0303 4.96826 18.6175L3.29289 20.2929C2.90237 20.6834 2.90237 21.3166 3.29289 21.7071C3.68342 22.0976 4.31658 22.0976 4.70711 21.7071L6.38246 20.0317C7.96971 21.2999 9.94876 22.0001 12 22.0001C14.2892 22.0001 16.4884 21.128 18.1535 19.5678L20.2929 21.7071C20.6834 22.0976 21.3166 22.0976 21.7071 21.7071C22.0976 21.3166 22.0976 20.6834 21.7071 20.2929L3.70711 2.29289Z" fill="#801ED7"/>
<path d="M20.4203 16.1777C20.8 15.1716 21 14.0961 21 13C21 10.6131 20.0518 8.32387 18.364 6.63604C16.6761 4.94821 14.3869 4 12 4C10.9039 4 9.8284 4.19995 8.8223 4.57965L20.4203 16.1777Z" fill="#801ED7"/>
<path d="M19.7071 2.29289C19.3166 1.90237 18.6834 1.90237 18.2929 2.29289C17.9024 2.68342 17.9024 3.31658 18.2929 3.70711L21.2929 6.70711C21.6834 7.09763 22.3166 7.09763 22.7071 6.70711C23.0976 6.31658 23.0976 5.68342 22.7071 5.29289L19.7071 2.29289Z" fill="#801ED7"/>
</svg>
